X:9003
T:La Mé ch'est vraiment superbe
R:Divers
C:Traditionnel
A:Normandie
O:France
M:6/8
L:1/8
Q:120
K:C
z E E|E3 F E D|D3 C C E|G3 G B A|G3 z B c|G2 A G2 F|!
E3 E z E|E2 E E D C|D3-D z E| G3-G z E|G3-G2 z|!
E G c "H"d2 e/2d/2|c3-c2 z|G2 A G> F E/2 F/2|G3 G2 z| E2 E E> E D/2 C/2|
 !
E3-E2 z|G2 A G> ^F A/2 A/2|G3 G B c|D3 E ^F A|G3-G2z|!
B2 c B> c B/2 A/2|A3 G2 z|G E A G F E|D3-D2 z|!
F2 E D> D F/2 A/2|A3 G2 z|_E2 E C> D E/2 C/2|G3 "DC"||!
% Output from ABC2Win  Version 2.1 f on 25/10/98


